src/assets/images/icons/app-icon-knowledge.svg

<svg xmlns="http://www.w3.org/2000/svg" viewBox="0 0 96 96">
  <g fill="none" fill-rule="evenodd">
    <path d="M0 0h96v96H0z"/>
    <path fill="#00A69B" fill-rule="nonzero" d="M46 12c-16.56 0-30 13.44-30 30 0 16.56 13.44 30 30 30h6v9.2C66.56 72 76 56.88 76 42c0-16.56-13.44-30-30-30Zm4 54h-8v-8h8v8Zm0-14h-8c0-13 12-12 12-20 0-4.4-3.6-8-8-8s-8 3.6-8 8h-8c0-8.84 7.16-16 16-16s16 7.16 16 16c0 10-12 11-12 20Z" opacity=".503"/>
    <path fill="#575752" fill-rule="nonzero" d="M46 4C25.04 4 8 21.04 8 42c0 20.28 15.96 36.92 36 37.96v14.4l5.72-2.76C70.24 81.72 84 61.8 84 42 84 21.04 66.96 4 46 4Zm6 77.2V72h-6c-16.56 0-30-13.44-30-30 0-16.56 13.44-30 30-30 16.56 0 30 13.44 30 30 0 14.92-9.44 30.04-24 39.2ZM42 58h8v8h-8v-8Zm4-42c-8.84 0-16 7.16-16 16h8c0-4.4 3.6-8 8-8s8 3.6 8 8c0 8-12 7-12 20h8c0-9 12-10 12-20 0-8.84-7.16-16-16-16Z"/>
  </g>
</svg>

<?xml version="1.0" encoding="UTF-8"?>
<svg width="96px" height="96px" viewBox="0 0 96 96" version="1.1" xmlns="http://www.w3.org/2000/svg" xmlns:xlink="http://www.w3.org/1999/xlink">
    <!-- Generator: Sketch 52.6 (67491) - http://www.bohemiancoding.com/sketch -->
    <title>app-icon-knowledge</title>
    <desc>Created with Sketch.</desc>
    <g id="app-icon-knowledge" stroke="none" stroke-width="1" fill="none" fill-rule="evenodd">
        <g id="contact_support-24px">
            <polygon id="Path" points="0 0 96 0 96 96 0 96"></polygon>
            <path d="M46,12 C29.44,12 16,25.44 16,42 C16,58.56 29.44,72 46,72 L52,72 L52,81.2 C66.56,72 76,56.88 76,42 C76,25.44 62.56,12 46,12 Z M50,66 L42,66 L42,58 L50,58 L50,66 Z M50,52 L42,52 C42,39 54,40 54,32 C54,27.6 50.4,24 46,24 C41.6,24 38,27.6 38,32 L30,32 C30,23.16 37.16,16 46,16 C54.84,16 62,23.16 62,32 C62,42 50,43 50,52 Z" id="Shape" fill="#00A69B" fill-rule="nonzero" opacity="0.503192575"></path>
            <path d="M46,4 C25.04,4 8,21.04 8,42 C8,62.28 23.96,78.92 44,79.96 L44,94.36 L49.72,91.6 C70.24,81.72 84,61.8 84,42 C84,21.04 66.96,4 46,4 Z M52,81.2 L52,72 L46,72 C29.44,72 16,58.56 16,42 C16,25.44 29.44,12 46,12 C62.56,12 76,25.44 76,42 C76,56.92 66.56,72.04 52,81.2 Z M42,58 L50,58 L50,66 L42,66 L42,58 Z M46,16 C37.16,16 30,23.16 30,32 L38,32 C38,27.6 41.6,24 46,24 C50.4,24 54,27.6 54,32 C54,40 42,39 42,52 L50,52 C50,43 62,42 62,32 C62,23.16 54.84,16 46,16 Z" id="Shape" fill="#575752" fill-rule="nonzero"></path>
        </g>
    </g>
</svg>
